X:4
T:Oxbergs marsch
R:Wedding march
O:Sweden
M:C
A:Dalarna
K:Am
e3f e2d2|c4 B4|A3B c2d2|e2^f2 g2e2|\
a3g e2d2|c4 B4|A3c e2e2|A8::
e3^f g2e2|a2^f2 d2ef|gag^f e2d2|\
B4 cBcd|e3c B2G2|1 A6 E2 :|2 A8 |]
